src/img/svg/monitor.svg

<svg width="38" height="30" viewBox="0 0 38 30" fill="none" xmlns="http://www.w3.org/2000/svg">
<path d="M34.0003 0H4.00033C2.15033 0 0.666992 1.48333 0.666992 3.33333V23.3333C0.666992 25.1667 2.15033 26.6667 4.00033 26.6667H12.3337V30H25.667V26.6667H34.0003C35.8337 26.6667 37.317 25.1667 37.317 23.3333L37.3337 3.33333C37.3337 1.48333 35.8337 0 34.0003 0ZM34.0003 23.3333H4.00033V3.33333H34.0003V23.3333ZM25.667 13.3333L14.0003 20V6.66667L25.667 13.3333Z" fill="white"/>
</svg>

<svg width="38" height="30" fill="none" xmlns="http://www.w3.org/2000/svg"><path d="M34 0H4A3.322 3.322 0 0 0 .667 3.333v20A3.332 3.332 0 0 0 4 26.667h8.334V30h13.333v-3.333H34c1.834 0 3.317-1.5 3.317-3.334l.017-20C37.334 1.483 35.834 0 34 0zm0 23.333H4v-20h30v20zm-8.333-10L14 20V6.667l11.667 6.666z" fill="#fff"/></svg>
